images/icons/visa.svg

<svg width="32" height="21" viewBox="0 0 32 21" fill="none" xmlns="http://www.w3.org/2000/svg">
<path d="M15.8442 5.85816L13.7071 16.1757H11.1208L13.2611 5.85816H15.8442ZM26.7239 12.5199L28.0843 8.64489L28.8685 12.5199H26.7239ZM29.6079 16.1757H32L29.913 5.85816H27.7055C27.7023 5.85816 27.6981 5.85816 27.6949 5.85816C27.2051 5.85816 26.7847 6.16767 26.6076 6.60716L26.6044 6.61487L22.7261 16.1757H25.4404L25.9803 14.6336H29.2974L29.6079 16.1757ZM22.8594 12.8074C22.8701 10.0834 19.2115 9.93361 19.2371 8.71648C19.2457 8.34639 19.586 7.95206 20.3329 7.85183C20.4716 7.83751 20.6316 7.8287 20.7938 7.8287C21.5524 7.8287 22.2715 8.00713 22.9117 8.32656L22.8829 8.31334L23.3364 6.12472C22.6183 5.83723 21.7871 5.66981 20.9186 5.6665H20.9176C18.3612 5.6665 16.5634 7.07088 16.5473 9.07887C16.5313 10.5637 17.8309 11.3909 18.8114 11.8865C19.8197 12.3921 20.1579 12.717 20.1526 13.1675C20.1462 13.8615 19.3502 14.1655 18.6055 14.1776C18.5714 14.1787 18.5297 14.1787 18.4892 14.1787C17.5599 14.1787 16.685 13.9375 15.921 13.5112L15.9499 13.5255L15.4815 15.7857C16.3201 16.1327 17.2921 16.3332 18.3099 16.3332C18.326 16.3332 18.342 16.3332 18.358 16.3332H18.3558C21.0723 16.3332 22.8488 14.9486 22.8584 12.804L22.8594 12.8074ZM12.1494 5.85816L7.96052 16.1757H5.22699L3.16564 7.93994C3.12617 7.53901 2.88824 7.20416 2.55748 7.03674L2.55108 7.03343C1.81702 6.66113 0.963457 6.35823 0.0704189 6.16767L0 6.15556L0.0618833 5.85706H4.46199C5.06162 5.85706 5.55988 6.30976 5.65271 6.90126L5.65377 6.90786L6.74313 12.8789L9.43398 5.85596L12.1494 5.85816Z" fill="#A6A6A6"/>
</svg>

<svg xmlns="http://www.w3.org/2000/svg" width="32" height="21" fill="none"><path fill="#A6A6A6" d="m15.844 5.858-2.137 10.318h-2.586l2.14-10.318zm10.88 6.662 1.36-3.875.785 3.875zm2.884 3.656H32L29.913 5.858h-2.218c-.49 0-.91.31-1.087.75l-.004.007-3.878 9.56h2.714l.54-1.541h3.317zm-6.749-3.369c.011-2.724-3.648-2.873-3.622-4.09.009-.37.349-.765 1.096-.865a4.73 4.73 0 0 1 2.579.475l-.03-.014.454-2.188a6.6 6.6 0 0 0-2.417-.458h-.001c-2.557 0-4.355 1.404-4.37 3.412-.017 1.485 1.283 2.312 2.263 2.807 1.009.506 1.347.831 1.342 1.282-.007.694-.803.998-1.547 1.01h-.117c-.93 0-1.804-.24-2.568-.667l.029.014-.468 2.26c.838.348 1.81.548 2.828.548h.048-.002c2.716 0 4.493-1.384 4.502-3.529zM12.15 5.858 7.961 16.176H5.227L3.166 7.94c-.04-.401-.278-.736-.609-.903l-.006-.004a10.3 10.3 0 0 0-2.48-.865L0 6.156l.062-.299h4.4c.6 0 1.098.453 1.19 1.044l.002.007 1.09 5.97 2.69-7.022z"/></svg>
